X: 1
T: Belle of Lexington
O: Emmet Lundy as played by Kirk Sutphin
R: reel
Z: 2020 John Chambers <jc:trillian.mit.edu>
S: https://www.facebook.com/groups/Fiddletuneoftheday/ 2020-04-18
S: https://www.facebook.com/groups/Fiddletuneoftheday/photos/
M: C|
L: 1/8
K: D
fg \
| a2fa bafa | efdf edBd | ABde feaf | [ec]e2[e-A] e2fa- |
| a2fa bafa | efdf edBA | fedB dBAF |1 [A3D3]D- [A2D2] :|2 [A6D6] ||
|: fe \
| d2Bd ADFD | EDFE DB,DB, | A,B,Dd BFAF | [AE]e2(d e)gfe |
| d2Bd ADFD | EDFE DB,-[D2B,2] | A,B,D[AD] dBAF |1 D3D- [A2D2] :|2 D3(E D2) |]
